X:319
T:Church Hill, The
T:Cnoc an Teampaill
R:jig
S:J\"orgen Fischer
Z:id:hn-jig-319
M:6/8
K:Ador
age ~e2B | e2B dBA | age fed | ege dBA :|
|: ~B3 g3 | aba geg | dBB ~g3 | age dBA :|
P:original from CRE II
|: age e2B | e2B dBA | age fed | efe dBA |
age e2B | e2B dBA | age fed | efe dBA :|
|: BAB gfg | aba geg | BAB gfg | age dBA |
BAB gfg | aba geg | dBB gfg | age dBA :|

